X:1
T: Miss Marston's Strathspey
C:
R:Strathspey
Q: 128
K:D
M:4/4
L:1/16
|:F2|DD3 F3A B3A Bd3|A3B d3f e3d ef3|DD3 F3A B3A Bd3|A3B d3e fd3 d2F2|
DD3 F3A B3A Bd3|A3B d3f e3d ef3|DD3 F3A B3A Bd3|A3B d3e fd3 d2g2|
fd3 d3g fgag fd3|B3A Bd3 e3d eg3|fd3 d3g fgag fd3|B3A Bc3 dD3 D3g|
((3f2g2a2) ((3b2g2e2) ((3a2f2d2) ((3d2c2d2) |((3B2c2d2) ((3e2f2g2) ((3f2e2d2) ((3c2B2A2) |FA3 d3c B3A Bd3|A3B d3e fd3 d2:|
